X: 1
T: the Deveron Reel
C: Iain MacFadyen
N: From David.South:nre.vic.gov.AU:
N: Looks like a variation of "The Deveron Reel" by Neil Grant (real name of
N: the composer is Iain MacFadyen - producer of The White Heather Club).
B: Ceol na Fidhle v.3
R: reel, march
Z: Cambridge Folk Orchestra
M: C|
L: 1/4
K: D
[| "D"DD F/D/F/G/ | AA F/A/F/A/ | dd f/e/d/e/ | "A7"fe ef \
 | "D"DD F/D/F/G/ | AA F/A/F/A/ | "D"df "A7"e/f/g/e/ | "D"fd d2 |]
[| "D"ff d/e/f/d/ | "A"eA A>A | "G"BB G/A/B/G/ | "D"AD D>D \
 | "G"GG "A7"E/F/G/E/ | "D"FA d>A | "G"B/A/G/F/ "A7"E>G | "D"FD D2 |]
